!!!SOCIAL_FUNCTION:	songs connected with legends
!!!PDT:	1929
!!!OTL: No_28_The_Rocks_are_Making_a_Noise.krn
!!!REG: Southwest
!!!LANG: Non-Tone
!!!LING_GROUP: Uto-Aztecan
**kern
*staff1
=1-
*clefF4
*k[]
*M2/4
8G\L
8d\J
8d\L
8d\J
=2
8c\L
8A\J
8F\L
8A\J
=3
4.A\
8G\
=4
2G\
=5!|:
8.d\L
16c\Jk
8d\L
8d\J
=6
8d\L
8d\J
8d\L
8c\J
=7
8.A\L
16G\Jk
8A\L
8G\J
=8
4G\
8G\
8r
=9
8A\L
8c\J
8c\L
8c\J
=10||
*M3/4
8d\L
8c\J
8c\L
8A\J
8G\L
16E\L
16E\JJ
=11||
*M2/4
8A\L
8A\J
8A\L
8A\J
=12
8A\L
8A\J
8A\L
8A\J
=13
2G\
==:|!
*-
